X: 97
T: Missa O gloriosa domina / Agnus Dei
N: Derived from Rue1021e-Missa_O_gloriosa_domina-Agnus.krn
C: Pierre de la Rue
%%abc-version 2.0
%%abcx-abcm2ps-target-version 5.9.1 (29 Sep 2008)
%%abc-creator hum2abc beta
%%abcx-conversion-date 2019/02/17 08:01:13
%%abc-edited-by Jesse Rodin
%%abc-edited-by Chris Gage 03-28-2013
%%abcx-initial-encoding-date 2013/07/27/
%%humdrum-veritas 2678773910
%%humdrum-veritas-data 3997878321
%%linebreak <none>
%%barnumbers 0
L: 1/4
M: 3/1
Q: 1/2=120
%%staves [1 2 3 4]
V: 1 clef=treble
V: 2 clef=treble
V: 3 clef=treble-8
V: 4 clef=bass
K: C
[V:1] d8A4 | 
[V:2] z12 | 
[V:3] z12 | 
[V:4] D8D4 | 
[V:1] A2c4d2e4 | 
[V:2] z12 | 
[V:3] z12 | 
[V:4] A,6B,2C4 | 
[V:1] f4f2d4d2 | 
[V:2] A8A4 | 
[V:3] d8A4 | 
[V:4] D4z2D,3E,F,G, | 
[V:1] c2A2c2BAG4 | 
[V:2] E6F2G4 | 
[V:3] A2c4d2e4 | 
[V:4] A,6G,F,E,4 | 
[V:1] z2F3DFGA3F | 
[V:2] A8F4 | 
[V:3] f3ed2cBA4- | 
[V:4] D,8F,3D, | 
[V:1] ABc4BAG4 | 
[V:2] D2C3A,CDE3F | 
[V:3] A4z4z2c2 | 
[V:4] F,G,A,3F,A,B,C4 | 
[V:1] z2c3Acde3c | 
[V:2] F4z4z4 | 
[V:3] c3Acde3cef | 
[V:4] F,4z4z4 | 
[V:1] efg3ff4e2 | 
[V:2] z4z4_B4 | 
[V:3] g4e2f2g4 | 
[V:4] z12 | 
[V:1] f8z4 | 
[V:2] A2A4A2F3D | 
[V:3] f8z4 | 
[V:4] z2F,2F,2F,3D,F,G, | 
[V:1] z2c2c2c3Acd | 
[V:2] FGA3FABc4 | 
[V:3] z12 | 
[V:4] A,3F,A,B,C4C2- | 
[V:1] e2c3Acde2e2 | 
[V:2] A4G2F2E4 | 
[V:3] z12 | 
[V:4] CA,CDE2D4^C2 | 
[V:1] f3de2d4^c2 | 
[V:2] D2F2E2F3DE2 | 
[V:3] a12- | 
[V:4] D2D2C2D2A,4 | 
[V:1] d2f2e2f3ec2 | 
[V:2] D4C2D3CA,2 | 
[V:3] a8a4 | 
[V:4] D,4z4z2A,2 | 
[V:1] d2f3edcd4 | 
[V:2] D3CD2E4D2 | 
[V:3] f3efga4g2 | 
[V:4] B,2D3CA,2B,4 | 
[V:1] c8z4 | 
[V:2] E2A,2z4A4 | 
[V:3] a2f2e2f3ec2 | 
[V:4] A,8z4 | 
[V:1] c4c2c2BAB2 | 
[V:2] A2A3GEFG4 | 
[V:3] e2f3ec2d4 | 
[V:4] A,4A,2A,2G,4 | 
[V:1] c2A4c2B2AG | 
[V:2] E4F2A4G2- | 
[V:3] c8z4 | 
[V:4] A,4F,4z4 | 
[V:1] A4G4z2d2 | 
[V:2] GFF2G2E2F4 | 
[V:3] z2d2e2c3AB2 | 
[V:4] z2F,2E,3C,D,4 | 
[V:1] e2dcB2d2c2BA | 
[V:2] E4z4z4 | 
[V:3] c2e2d4z2f2 | 
[V:4] C,4z2G,2A,2G,F, | 
[V:1] B4A4z2e2 | 
[V:2] z2G2A2F2G4 | 
[V:3] g2e3dd4c2 | 
[V:4] E,2G,2F,2E,D,E,4 | 
[V:1] f2edc2e2d2cB | 
[V:2] F2A2G2A2F2G2 | 
[V:3] d2f2e4z4 | 
[V:4] D,4z2A,2_B,2A,G, | 
[V:1] c4B4z2f2 | 
[V:2] A4z4A4 | 
[V:3] z2e4e2dcd2 | 
[V:4] F,2A,2G,2F,E,F,4 | 
[V:1] g2g2e2g3fed | 
[V:2] G2E2G3FEDC2- | 
[V:3] e2g4e2g3f | 
[V:4] E,12 | 
[V:1] cBe4d4^c2 | 
[V:2] C2A2F2G2A4 | 
[V:3] edc4d2e4 | 
[V:4] A,6_B,2A,4 | 
[V:1] d12 ||  
[V:2] F12 ||  
[V:3] d12 ||  
[V:4] D,12 ||  
[V:1]  [K:C] [K:clef=treble][M:2/1]z8 | 
[V:2]  [K:C] [K:clef=treble][M:2/1]A4A2G2- | 
[V:3]  [K:C] [K:clef=treble-8][M:2/1]z8 | 
[V:4]  [K:C] [K:clef=bass][M:2/1]z8 | 
[V:1] z8 | 
[V:2] G2FEF4 | 
[V:3] z8 | 
[V:4] z4D4 | 
[V:1] z8 | 
[V:2] F2E4A2 | 
[V:3] z8 | 
[V:4] D2C4_B,A, | 
[V:1] z8 | 
[V:2] G2F4ED | 
[V:3] z8 | 
[V:4] _B,4A,4- | 
[V:1] z8 | 
[V:2] C8 | 
[V:3] z8 | 
[V:4] A,4z2C2 | 
[V:1] z8 | 
[V:2] z4E4 | 
[V:3] z8 | 
[V:4] _B,2A,4G,F, | 
[V:1] z8 | 
[V:2] G4G3A | 
[V:3] z8 | 
[V:4] E,4z2E,2 | 
[V:1] z8 | 
[V:2] B2G4FE | 
[V:3] z8 | 
[V:4] G,4G,3A, | 
[V:1] z8 | 
[V:2] D2G3FGA | 
[V:3] z8 | 
[V:4] B,2G,3A,B,C | 
[V:1] z8 | 
[V:2] B2A4^G2 | 
[V:3] z8 | 
[V:4] DCB,A,B,4 | 
[V:1] z8 | 
[V:2] A8 | 
[V:3] z8 | 
[V:4] A,4z2D2 | 
[V:1] z8 | 
[V:2] z4A4 | 
[V:3] z8 | 
[V:4] D2C2D2F2- | 
[V:1] z8 | 
[V:2] A4G4- | 
[V:3] z8 | 
[V:4] F2EDE2C2- | 
[V:1] z8 | 
[V:2] G4B4 | 
[V:3] z8 | 
[V:4] C2B,A,G,4 | 
[V:1] z8 | 
[V:2] A2A4G2 | 
[V:3] z8 | 
[V:4] F,6E,2 | 
[V:1] z8 | 
[V:2] A2c4BA | 
[V:3] z8 | 
[V:4] F,2A,4G,F, | 
[V:1] z8 | 
[V:2] B2G4FE | 
[V:3] z8 | 
[V:4] G,4_B,4- | 
[V:1] z8 | 
[V:2] D4C4- | 
[V:3] z8 | 
[V:4] B,4A,4 | 
[V:1] z8 | 
[V:2] C4z2G2- | 
[V:3] z8 | 
[V:4] z2C4B,A, | 
[V:1] z8 | 
[V:2] G2FED2A2 | 
[V:3] z8 | 
[V:4] G,2D4CB, | 
[V:1] z8 | 
[V:2] A2c3BA2 | 
[V:3] z8 | 
[V:4] A,4A,2C2- | 
[V:1] z8 | 
[V:2] G2F4E2 | 
[V:3] z8 | 
[V:4] CB,A,2G,4 | 
[V:1] z8 | 
[V:2] F4z2F2- | 
[V:3] z8 | 
[V:4] F,8 | 
[V:1] z8 | 
[V:2] FGAFG2F2- | 
[V:3] z8 | 
[V:4] z4z2A,2- | 
[V:1] z8 | 
[V:2] FDEFG2A2 | 
[V:3] z8 | 
[V:4] A,B,CA,B,2A,2- | 
[V:1] z8 | 
[V:2] F3ED2G2- | 
[V:3] z8 | 
[V:4] A,F,G,A,B,2C2 | 
[V:1] z8 | 
[V:2] GFEDE4 | 
[V:3] z8 | 
[V:4] B,A,D4^C2 | 
[V:1] z8 ||  
[V:2] D8 ||  
[V:3] z8 ||  
[V:4] D8 ||  
[V:1]  [K:C] [K:clef=treble][M:2/1]d8 | 
[V:2]  [K:C] [K:clef=treble][M:2/1]A8 | 
[V:3]  [K:C] [K:clef=treble-8][M:2/1]f8 | 
[V:4]  [K:C] [K:clef=bass][M:2/1]D8 | 
[V:1] d4d4 | 
[V:2] A4A4 | 
[V:3] f4f4 | 
[V:4] D4D4 | 
[V:1] e6dc | 
[V:2] A8 | 
[V:3] e8- | 
[V:4] A,8 | 
[V:1] c8- | 
[V:2] z4A4 | 
[V:3] e8- | 
[V:4] z4A,4 | 
[V:1] c8 | 
[V:2] A4G2A2- | 
[V:3] e8 | 
[V:4] A,4C4 | 
[V:1] z8 | 
[V:2] AGF2E2F2 | 
[V:3] z8 | 
[V:4] C2A,4F,2- | 
[V:1] z8 | 
[V:2] C2F4E2 | 
[V:3] z8 | 
[V:4] F,2A,2G,4 | 
[V:1] z4c4 | 
[V:2] F8- | 
[V:3] a8 | 
[V:4] F,8- | 
[V:1] c4c2A2- | 
[V:2] F8 | 
[V:3] a4a4 | 
[V:4] F,8 | 
[V:1] A2F4c2 | 
[V:2] z4F4 | 
[V:3] a8 | 
[V:4] z4F,4 | 
[V:1] d2c2f4 | 
[V:2] F4c4- | 
[V:3] a8 | 
[V:4] F,4F,4 | 
[V:1] e4d2e2- | 
[V:2] c2BAB2c2 | 
[V:3] g8- | 
[V:4] C4G,2C2- | 
[V:1] efg3fe2 | 
[V:2] G3AB4 | 
[V:3] g8 | 
[V:4] C2B,A,G,4 | 
[V:1] d2c2B4 | 
[V:2] z8 | 
[V:3] g8 | 
[V:4] z2C2D2E2 | 
[V:1] A4z2c2 | 
[V:2] c4c2A2 | 
[V:3] a4a4 | 
[V:4] F4F4 | 
[V:1] d2e2f2ed | 
[V:2] B2c2B2c2- | 
[V:3] g4f2g2 | 
[V:4] z2C2D2C2 | 
[V:1] c2f4e2- | 
[V:2] cBAGA4- | 
[V:3] a2d4a2- | 
[V:4] F3ED2C2 | 
[V:1] e2d3^cc2 | 
[V:2] A4A4 | 
[V:3] agf2e4 | 
[V:4] D4A,4 | 
[V:1] d2A2B2c2 | 
[V:2] z2F2G2A2 | 
[V:3] d8- | 
[V:4] D,4z4 | 
[V:1] d2cBA2G2 | 
[V:2] _B2AGF2B2 | 
[V:3] d8 | 
[V:4] z4z2G,2 | 
[V:1] A2B2c4 | 
[V:2] A2G3^FF2 | 
[V:3] z4c4 | 
[V:4] F,2G,2A,4 | 
[V:1] B8 | 
[V:2] G8- | 
[V:3] d2B2d2e2 | 
[V:4] G,8 | 
[V:1] B4B4 | 
[V:2] G8 | 
[V:3] d2g2e2g2- | 
[V:4] G,4G,4 | 
[V:1] B8 | 
[V:2] z4G4 | 
[V:3] g2fed4 | 
[V:4] E,2F,2G,4 | 
[V:1] c6A2 | 
[V:2] E2F3EE2 | 
[V:3] c8- | 
[V:4] A,8 | 
[V:1] A6c2- | 
[V:2] F6ED | 
[V:3] c8 | 
[V:4] F,8 | 
[V:1] c2B2A4 | 
[V:2] C4D4 | 
[V:3] z8 | 
[V:4] F,4F,4 | 
[V:1] G6FE | 
[V:2] E8 | 
[V:3] z4g4 | 
[V:4] E,4E,4 | 
[V:1] F2E4D2 | 
[V:2] A,4A,4 | 
[V:3] a8 | 
[V:4] D,2E,2F,4 | 
[V:1] E8 | 
[V:2] B,8 | 
[V:3] g6fe | 
[V:4] E,8 | 
[V:1] z8 | 
[V:2] z8 | 
[V:3] f2g2e4 | 
[V:4] z2G,4F,E, | 
[V:1] z8 | 
[V:2] z8 | 
[V:3] d2e3fg2- | 
[V:4] F,2G,2E,4 | 
[V:1] z8 | 
[V:2] z8 | 
[V:3] g2f2e2f2 | 
[V:4] A,4G,2A,2- | 
[V:1] z8 | 
[V:2] z8 | 
[V:3] f2e4d2 | 
[V:4] A,E,G,2F,4 | 
[V:1] z8 | 
[V:2] z2G4FE | 
[V:3] e8 | 
[V:4] E,8 | 
[V:1] z2g4fe | 
[V:2] F2G2E4 | 
[V:3] z8 | 
[V:4] z8 | 
[V:1] f2g2e4 | 
[V:2] D2E3FG2 | 
[V:3] z8 | 
[V:4] z8 | 
[V:1] d2e3fg2- | 
[V:2] F2E2G4 | 
[V:3] z8 | 
[V:4] z4z2E2- | 
[V:1] g2f2e2f2- | 
[V:2] E2F2G2F2 | 
[V:3] z8 | 
[V:4] E2D2C2D2- | 
[V:1] f2e3dd2 | 
[V:2] AGFEF4 | 
[V:3] z8 | 
[V:4] DCC2D4 | 
[V:1] e8- | 
[V:2] E2c4BA | 
[V:3] e4e2g2- | 
[V:4] z2A,4G,2- | 
[V:1] e8- | 
[V:2] B2c2A4 | 
[V:3] gfedc2B2- | 
[V:4] G,2A,4E,2- | 
[V:1] e8 | 
[V:2] G2A3Bc2 | 
[V:3] B2A2e2e2- | 
[V:4] E,2A,2C3B, | 
[V:1] z4e4 | 
[V:2] B2A4^G2 | 
[V:3] edc2B4 | 
[V:4] G,2A,2E,4 | 
[V:1] e2c4A2- | 
[V:2] A8 | 
[V:3] A4z2d2- | 
[V:4] z2A,4F,2 | 
[V:1] A2B4c2- | 
[V:2] z8 | 
[V:3] d2d2e4 | 
[V:4] D,2G,4A,2- | 
[V:1] c2d4B2- | 
[V:2] A4A2G2 | 
[V:3] f4d4 | 
[V:4] A,2D,4G,2- | 
[V:1] B2e4d2- | 
[V:2] E3FG2A2 | 
[V:3] g6f2 | 
[V:4] G,2E,4F,2 | 
[V:1] d2c2d4 | 
[V:2] B2A2F2GF | 
[V:3] e4d4 | 
[V:4] G,2A,2_B,3A, | 
[V:1] z2d2e4 | 
[V:2] EDD4^C2 | 
[V:3] z8 | 
[V:4] G,2F,2E,4 | 
[V:1] f4e2c2- | 
[V:2] D2A2G2A2 | 
[V:3] d4e4 | 
[V:4] D,4z2A,2- | 
[V:1] c2d2e2c2- | 
[V:2] c2BAG2A2- | 
[V:3] f4e4 | 
[V:4] A,2B,2C2A,2- | 
[V:1] c2d4e2- | 
[V:2] A2B4c2- | 
[V:3] f4g4 | 
[V:4] A,2D2G,2C2- | 
[V:1] e2f4d2- | 
[V:2] c2A4d2- | 
[V:3] a4f4 | 
[V:4] C2F,4_B,2- | 
[V:1] d2g3fde | 
[V:2] dc_BAB2B2 | 
[V:3] g8 | 
[V:4] B,2G,3A,_B,A, | 
[V:1] f4f2e2- | 
[V:2] c8 | 
[V:3] a4a2g2- | 
[V:4] F,2F2F2C2 | 
[V:1] edd4^c2 | 
[V:2] A4A4 | 
[V:3] gfede4 | 
[V:4] D4A,4 | 
[V:1] d8- | 
[V:2] F3GA2_B2- | 
[V:3] d8- | 
[V:4] _B,3A,F,2G,2- | 
[V:1] d8- | 
[V:2] B2AGF3G | 
[V:3] d8- | 
[V:4] G,A,_B,CD4 | 
[V:1] d8 |]  
[V:2] A8 |]  
[V:3] d8 |]  
[V:4] D,8 |]  



